svg/300/outlined/pulmonology-fill.svg

<svg xmlns="http://www.w3.org/2000/svg" width="48" height="48" viewBox="0 -960 960 960"><path d="M202.693-130.001q-42.923 0-72.807-29.884-29.885-29.885-29.885-72.808v-178.076l103.385-268.23q12.384-32.154 40.192-51.577 27.808-19.423 61.577-19.423 42.385 0 72.077 29.307 29.692 29.308 27.769 71.693v57.538l-97.846 98.231 37.23 37.23 112.923-112.923v-301.076h45.384v301.076L615.615-456l37.23-37.23-97.846-98.231v-57.538q-1.923-42.385 27.961-71.693 29.885-29.307 71.885-29.307 34.154 0 61.769 19.423 27.616 19.423 39.616 51.577l103.769 268.23v178.076q0 42.923-29.885 72.808-29.884 29.884-72.807 29.884H622.692q-42.923 0-72.808-29.884Q520-189.77 520-232.693v-72.692l19.846-162.154L480-528.385l-61.231 60.846L440-305.385v72.692q0 42.923-30.077 72.808-30.077 29.884-72.615 29.884H202.693Z"/></svg>

<svg xmlns="http://www.w3.org/2000/svg" width="48" height="48" viewBox="0 -960 960 960"><path d="M202.69-130q-42.92 0-72.8-29.89Q100-189.77 100-232.69v-178.08L203.39-679q12.38-32.15 40.19-51.58Q271.39-750 305.16-750q42.38 0 72.07 29.31Q406.92-691.38 405-649v57.54l-97.84 98.23L344.39-456l112.92-112.92V-870h45.38v301.08L615.61-456l37.23-37.23L555-591.46V-649q-1.92-42.38 27.96-71.69Q612.84-750 654.84-750q34.16 0 61.77 19.42 27.62 19.43 39.62 51.58L860-410.77v178.08q0 42.92-29.89 72.8Q800.23-130 757.31-130H622.69q-42.92 0-72.81-29.89Q520-189.77 520-232.69v-72.7l19.85-162.15L480-528.39l-61.23 60.85L440-305.39v72.7q0 42.92-30.08 72.8Q379.85-130 337.31-130H202.69Z"/></svg>
